rospo-icon-theme-classic-common/32x32/apps/phoronix-test-suite.svg

<svg height="32" width="32" xmlns="http://www.w3.org/2000/svg"><path d="m4.8 3c-1.5512 0-2.8 1.2488-2.8 2.8v14 8.4c0 1.5512 1.4488 2.8 3 2.8s3-1.2488 3-2.8v-4.2h19.2c1.5512 0 2.8-1.2488 2.8-2.8v-15.4c0-1.5512-1.2488-2.8-2.8-2.8z" opacity=".2"/><path d="m4.8 2c-1.5512 0-2.8 1.2488-2.8 2.8v14 8.4c0 1.5512 1.4488 2.8 3 2.8s3-1.2488 3-2.8v-4.2h19.2c1.5512 0 2.8-1.2488 2.8-2.8v-15.4c0-1.5512-1.2488-2.8-2.8-2.8z" fill="#7cb320"/><path d="m10.693359 8c-1.4922256 0-2.693359 1.3790281-2.693359 2.845703v1.154297h-2l3.5 3 3.5-3h-2v-1h8.800781 1.398438 2.800781v-.154297c0-1.4666749-1.201133-2.845703-2.693359-2.845703zm11.806641 4-3.5 3h2v1h-8.800781-1.398438-2.800781v.154297c0 1.466675 1.2011332 2.845703 2.693359 2.845703h10.613282c1.492226 0 2.693359-1.379028 2.693359-2.845703v-1.154297h2z" opacity=".2"/><path d="m10.693359 7c-1.4922256 0-2.693359 1.3790281-2.693359 2.8457031v1.1542969h-2l3.5 3 3.5-3h-2v-1h8.800781 1.398438 2.800781v-.1542969c0-1.466675-1.201133-2.8457031-2.693359-2.8457031zm11.806641 4-3.5 3h2v1h-8.800781-1.398438-2.800781v.154297c0 1.466675 1.2011332 2.845703 2.693359 2.845703h10.613282c1.492226 0 2.693359-1.379028 2.693359-2.845703v-1.154297h2z" fill="#fff"/><circle cx="15.5" cy="12.5" fill="#3f3f3f" r="1.5"/><path d="m4.8007812 2c-1.5511999 0-2.8007812 1.2495813-2.8007812 2.8007812v1c0-1.5511999 1.2495813-2.8007812 2.8007812-2.8007812h22.3984378c1.5512 0 2.800781 1.2495813 2.800781 2.8007812v-1c0-1.5511999-1.249581-2.8007812-2.800781-2.8007812z" fill="#fff" opacity=".2"/></svg>

<svg xmlns="http://www.w3.org/2000/svg" width="32" height="32" version="1">
 <path style="opacity:0.2" d="M 4.8,3 C 3.2488,3 2,4.2488 2,5.8 l 0,14 0,8.4 C 2,29.7512 3.4488,31 5,31 6.5512,31 8,29.7512 8,28.2 L 8,24 27.2,24 C 28.7512,24 30,22.7512 30,21.2 L 30,5.8 C 30,4.2488 28.7512,3 27.2,3 Z"/>
 <path style="fill:#7cb320" d="M 4.8,2 C 3.2488,2 2,3.2488 2,4.8 l 0,14 0,8.4 C 2,28.7512 3.4488,30 5,30 6.5512,30 8,28.7512 8,27.2 L 8,23 27.2,23 C 28.7512,23 30,21.7512 30,20.2 L 30,4.8 C 30,3.2488 28.7512,2 27.2,2 Z"/>
 <path style="opacity:0.2" d="M 10.693359,8 C 9.2011334,8 8,9.3790281 8,10.845703 L 8,12 l -2,0 3.5,3 3.5,-3 -2,0 0,-1 8.800781,0 1.398438,0 L 24,11 24,10.845703 C 24,9.3790281 22.798867,8 21.306641,8 L 10.693359,8 Z M 22.5,12 19,15 l 2,0 0,1 -8.800781,0 -1.398438,0 L 8,16 8,16.154297 C 8,17.620972 9.2011332,19 10.693359,19 l 10.613282,0 C 22.798867,19 24,17.620972 24,16.154297 L 24,15 l 2,0 -3.5,-3 z"/>
 <path style="fill:#ffffff" d="M 10.693359 7 C 9.2011334 7 8 8.3790281 8 9.8457031 L 8 11 L 6 11 L 9.5 14 L 13 11 L 11 11 L 11 10 L 19.800781 10 L 21.199219 10 L 24 10 L 24 9.8457031 C 24 8.3790281 22.798867 7 21.306641 7 L 10.693359 7 z M 22.5 11 L 19 14 L 21 14 L 21 15 L 12.199219 15 L 10.800781 15 L 8 15 L 8 15.154297 C 8 16.620972 9.2011332 18 10.693359 18 L 21.306641 18 C 22.798867 18 24 16.620972 24 15.154297 L 24 14 L 26 14 L 22.5 11 z"/>
 <circle style="fill:#3f3f3f" cx="15.5" cy="12.5" r="1.5"/>
 <path style="opacity:0.2;fill:#ffffff" d="M 4.8007812 2 C 3.2495813 2 2 3.2495813 2 4.8007812 L 2 5.8007812 C 2 4.2495813 3.2495813 3 4.8007812 3 L 27.199219 3 C 28.750419 3 30 4.2495813 30 5.8007812 L 30 4.8007812 C 30 3.2495813 28.750419 2 27.199219 2 L 4.8007812 2 z"/>
</svg>
